X: 24
T:Bung Your Eye
M:6/8
L:1/8
S:AABB
K:Am
E|"Am"ABA c2d|"Am"edc "G"B2A|"Em"GAG B2c|"G"dge "Em"dBG|!
"Am"ABA c2d|"Am"edc "Em"Bcd|"Am"eAA AB"E"^G|"Am"A3 A2:|!
||:B|"C"c2 e g2 a|"C"gec gec|"G"G2 B d2 e|"G"dge dBG|!
"C"c2 e g2 a|"C"gec ce"E"^g|"Am"aAA AB"E"^G|"A"A3 A2:|
% <A name="D1X025">
